src/telerik-icons/solid/table-add.svg

<?xml version="1.0" encoding="utf-8"?>
<svg xmlns="http://www.w3.org/2000/svg" width="512" height="512" viewBox="0 0 512 512">
  <path d="M448 320V32H32v416h288V320h128zm-288 96H64v-96h96v96zm0-128H64v-96h96v96zm0-128H64V64h96v96zm128 256h-96v-96h96v96zm0-128h-96v-96h96v96zm0-128h-96V64h96v96zm32-96h96v96h-96V64zm0 224v-96h96v96h-96zm192 128v32h-64v64h-32v-64h-64v-32h64v-64h32v64h64z"/>
</svg>

<?xml version="1.0" encoding="utf-8"?>
<!-- Generator: Adobe Illustrator 20.1.0, SVG Export Plug-In . SVG Version: 6.00 Build 0)  -->
<svg xmlns="http://www.w3.org/2000/svg" width="512" height="512" viewBox="0 0 512 512">
<path d="M448,320V32H32v416h288V320l96,0H448z M160,416H64v-96h96V416z M160,288H64v-96h96V288z M160,160H64V64h96V160z M288,416
	h-96v-96h96V416z M288,288h-96v-96h96V288z M288,160h-96V64h96V160z M320,64h96v96h-96V64z M320,288v-96h96v96H320z M512,416v32h-32
	h-32v32v32h-32v-32v-32h-64v0v-32h64v-64h32v64v0h32H512z" />
</svg>
